X:56
T:Fascination
C:F.D. Marchetti (played by F. Lafertin & B. Ferret)
N:Adapted/Arranged for Mandolin by Wendy Anthony (from JacquesV's Guitar version) 16 Oct 2004
L:1/8
Q:1/4=104
M:4/4
K:Bb
z8 | zz/8f7/8 cz/8f2d7/8 Bz/8d7/8 | zz/8c7/8 Gz/8c7/8 zz/8d7/8 Az/8d7/8 | zz/8f7/8 cz/8f2d7/8 Bz/8d7/8 | 
zz/8c7/8 Gz/8A7/8 A,z/8B,7/8 Dz/8F7/8 | B6 B2 | A2 A3A Bz/8A7/8 | zz/8G,7/8 (3_D=EB A2 E2 | 
[G4_D4] A,z/8B,7/8 =Dz/8F7/8 | B3B A2 Bz/8A7/8 | A4 G2 Az/8G7/8 | zz/8C7/8 (3EGc =Bz/8_A7/8 Gz/8F7/8 | 
E/4F/4E/z/8D7/8 =B,z/8C7/8 B,z/8C7/8 Ez/8G7/8 | cz/8C7/8 (3EGc dz/8_d7/8 cz/8=B7/8 | 
Bz/8_G7/8 Ez/8C7/8 z/8C7/8 Ez/8=G7/8 | Bz/8A,7/8 (3B,DF z3z/8A7/8 | G/4A/4G/z/8D7/8 B,z/8G,2C7/8 Ez/8G7/8 | 
c3c (3BcB (3ABA | (3GAG (3EGE C2 Cz/8G,7/8 | B,z/8_G7/8 zz/8B,7/8 Gz/8z7/8 B,z/8G7/8 | 
A,z/8F7/8 z2 A,z/8B,7/8 Dz/8F7/8 | B6 B2 | A4 A2 B2 | Az/8B7/8 Bz/8_d7/8 dz/8=e7/8 ez/8d7/8 | 
Bz/8A7/8 z2 A,z/8B,7/8 Dz/8F7/8 | Bz/8F7/8 B2 c2 dz/8A7/8 | (3GAG D2 =B,2 A2 | 
Gz/8C7/8 (3EGc =Bz/8_A7/8 Gz/8F7/8 | E/4F/4E/z/8D7/8 =B,z/8C7/8 B,z/8C7/8 Ez/8G7/8 | 
e2 Cz/8e7/8 (3ded c2 | B2 G4 zz/8G,7/8 | Dz/8D7/8 G,z/8D7/8 Fz/8D7/8 =B,z/8G,7/8 | 
Cz/8C7/8 zz/8C7/8 G,z/8=B,7/8 Cz/8E7/8 | G4 z2 (3C=B,_B, | A,2 A2 F/z/z Az/8A,7/8 | 
B,2 B2 B,z/8D7/8 Fz/8A7/8 | Gz/8E7/8 Cz/8B,7/8 A,z/8B,7/8 Dz/8F7/8 | Bz/8A7/8 cz/8B2F7/8 Gz/8A7/8 | 
z3z/8A7/8 Bz/8A7/8 Gz/8F/4G/8F/ | =Ez/8F7/8 Gz/8G7/8 zz/8F7/8 Ez/8D7/8 | _Dz/8D7/8 z2 A,z/8B,7/8 =Dz/4E3/8F3/8 | 
Gz/8A7/8 Bz/8d7/8 fz/8d7/8 Bz/8A7/8 | z2 (3zFG Az/8F7/8 _Gz/8=G7/8 | E2 D/4E/4D/z/8C7/8 =B,z/8D7/8 Fz/8_A7/8 | 
Gz/8E7/8 Cz/8=B,7/8 Cz/8D7/8 Ez/8G7/8 | dz/8d/4c/z/8 Gz/8E7/8 Cz/8G,7/8 Ez/8C7/8 | 
E4 A,z/8B,7/8 Dz/8F7/8 | Bz/8d7/8 Bz/8A7/8 z2 {B}cz/8B7/8 | Gz/8D7/8 G,3z/8=B,7/8 (3CEG | 
c4 (3BcB (3ABA | (3GAG (3EGE Cz/8B,7/8 Cz/8_D7/8 | B,z/8_G7/8 zz/8B,7/8 Gz/8z7/8 B,z/8G7/8 | 
A,z/8F7/8 =Ez/8F7/8 A,z/8B,7/8 Dz/8F7/8 | Bz/8A7/8 cz/8=B7/8 _Bz/8_D7/8 =Dz/8A7/8 | 
z3z/8B7/8 Az/8G7/8 F/4G/4F/z/8=E7/8 | _Gz3/8=Gz/4_Gz3/8 G2 =G/F/z/8=E7/8 | Dz/8_D7/8 z2 A,z/8B,7/8 =Dz/8F7/8 | 
Bz/8A7/8 cz/8=B7/8 _Bz/8_D7/8 =Dz/8A7/8 | z2 (3zGA G3z/8A7/8 | Gz/8E7/8 Cz/8G,7/8 Fz/8D7/8 =B,z/8G,7/8 | 
C3z/8=B,7/8 Cz/8D7/8 Ez/8G7/8 | e4 (3ded (3cdc | (3BcB (3GBG Ez/8C7/8 G,z/8G,7/8 | 
Dz/8D7/8 zz/8F7/8 E/4F/4E/z/8D7/8 =B,z/8D7/8 | (3CDCz/8G7/8 G,z/8=B,7/8 Cz/8E7/8 | 
G3z/8G7/8 _Gz/8=G7/8 _Az/8=A7/8 | z2 Fz/8f7/8 d/4f/4d/z/8A7/8 cz/8=B7/8 | Bz/8C7/8 Dz/8A7/8 G2 _Gz/8=G7/8 | 
Bz/8G2z7/8 A,z/8B,7/8 Dz/8F7/8 | Bz/8A7/8 cz/8=B7/8 _Bz/8_D7/8 =Dz/8A7/8 | z2 Gz/8F/4G/8F/ =Ez/8F7/8 _Gz/8=G7/8 | 
zz/8=E7/8 _Dz/8A,7/8 G,z/8G,7/8 G,z/8G,7/8 | z4 A,z/8B,7/8 Dz/8F7/8 | B3z/8A7/8 zz/8B7/8 Az/8B7/8 | 
A/4B/4A/z/8F7/8 D2 Az/8_A7/4z/8G/=A/ | Gz/8E7/8 Cz/8G,7/8 Fz/8D7/8 =B,z/8G,7/8 | 
Cz/8C7/8 zz/8C7/8 =B,z/8C7/8 Ez/8G7/8 | dz/8c/4d/8c/ Gz/8E7/8 Cz/8G,7/8 Ez/8C7/8 | 
E4 A,z/8B,7/8 Dz/8F7/8 | Bz/8d7/8 (3fdB A2 dz/8A7/8 | Gz/8D7/8 z2 zz/8C7/8 (3CEG | 
c4 (3BcB (3ABA | (3GAG (3EGE Cz/8B,7/8 Cz/8_D7/8 | B,z/8_G7/8 zz/8B,7/8 Gz/8z7/8 B,z/8G7/8 | 
A,z/8F7/8 =Ez/8F7/8 zz/8A,7/8 B,z/8D7/8 | Fz/8G7/8 Bz/8c7/8 dz/8c7/8 Bz/8A7/8 | 
z2 zz/8A7/8 Bz/8A7/8 Gz/8A7/8 | zz/8G7/8 F/4G/4F/z/8=E7/8 G2 (3=e_dB | (3G=E_D B,z/8G,7/8 zz/8A,7/8 (3B,=DF | 
B3z/8A7/8 cz/8=B7/8 _Bz/8_D7/8 | Dz/8A7/8 Fz/8D7/8 =B,z/8A7/8 B,z/8A7/8 | Gz/8E7/8 Cz/8G,7/8 Dz/8=B,7/8 zz/8G7/8 | 
C3z/8=B,7/8 Cz/8D7/8 Ez/8G7/8 | e4 (3ded (3cdc | (3BcB (3GBG (3EGE Cz/8_G7/8 | 
G,z/8D2F7/8 E/4F/4E/z/8D7/8 =B,z/8D7/8 | (3CDCz/8G7/8 G,z/8C7/8 Ez/8G7/8 | G3_A/G/ _Gz/8=G7/8 Az/8=A7/8 | 
fz/8=e7/8 _ez/8_d7/8 =d2 Fz/8B7/8 | zz/8F2D7/8 Fz/8D7/8 B,z/8G,7/8 | zz/8E2A,7/8 B,2 [f2A2D2B,2] | 
z8 | 


